src/status/16/pamac-wait.svg

<svg viewBox="0 0 16 16" xmlns="http://www.w3.org/2000/svg">
 <path d="m5 2-2 3h4.5v-3h-2.5zm3.5 0v3h4.5l-2-3h-2.5zm-5.5 4v7h6v-3-1h3.334 0.33203 0.33398v-3h-10z" fill="#4c566a"/>
 <path d="m10 10v5h1.667v-5zm3.333 0v5h1.667v-5" fill="#4c566a"/>
</svg>

<svg xmlns="http://www.w3.org/2000/svg" viewBox="0 0 16 16">
 <path d="M 5 2 L 3 5 L 7.5 5 L 7.5 2 L 5 2 z M 8.5 2 L 8.5 5 L 13 5 L 11 2 L 8.5 2 z M 3 6 L 3 13 L 9 13 L 9 10 L 9 9 L 12.333984 9 L 12.666016 9 L 13 9 L 13 6 L 3 6 z " style="fill:#4c566a"/>
 <path d="m 10 10 0 5 1.667 0 0 -5 z m 3.333 0 0 5 l 1.667 0 0 -5" style="fill:#4c566a;opacity:1;fill-opacity:1;stroke:none;fill-rule:nonzero"/>
</svg>
